**kern	**text	**kern	**text	**kern	**text	**kern	**text	**kern	**text
*staff5	*staff5	*staff4	*staff4	*staff3	*staff3	*staff2	*staff2	*staff1	*staff1
*I"Basso	*	*I"Tenore	*	*I"Alto	*	*I"Soprano II	*	*I"Soprano I	*
=1-	=1-	=1-	=1-	=1-	=1-	=1-	=1-	=1-	=1-
*clefF4	*	*clefGv2	*	*clefGv2	*	*clefG2	*	*clefG2	*
*k[b-]	*	*k[b-]	*	*k[b-]	*	*k[b-]	*	*k[b-]	*
*met(c|)	*	*met(c|)	*	*met(c|)	*	*met(c|)	*	*met(c|)	*
*M2/2	*	*M2/2	*	*M2/2	*	*M2/2	*	*M2/2	*
[1F	Tri-	1r	.	[1c	Tri-	1r	.	1r	.
=2	=2	=2	=2	=2	=2	=2	=2	=2	=2
1F]	.	[1A	Tri-	1c]	.	1r	.	[1f	Tri-
=3	=3	=3	=3	=3	=3	=3	=3	=3	=3
[1C	-stis	1A]	.	[1c	-stis	1r	.	1f]	.
=4	=4	=4	=4	=4	=4	=4	=4	=4	=4
1C]	.	1G	-stis	1c]	.	1r	.	1e-	-stis
=5	=5	=5	=5	=5	=5	=5	=5	=5	=5
[1D	est	[1F	est	1B-	est	1r	.	[1d	est
=6	=6	=6	=6	=6	=6	=6	=6	=6	=6
1D]	.	1F]	.	1A	.	1r	.	1d]	.
=7	=7	=7	=7	=7	=7	=7	=7	=7	=7
1BB-	a-	1B-	a-	1d	a-	1r	.	1f	a-
=8	=8	=8	=8	=8	=8	=8	=8	=8	=8
2BB-/	-ni-	2B-\	-ni-	2d\	-ni-	1r	.	2f/	-ni-
2BB-/	-ma	2B-\	-ma	2d\	-ma	.	.	2f/	-ma
=9	=9	=9	=9	=9	=9	=9	=9	=9	=9
1D	me-	1A	me-	1d	me-	1r	.	1f	me-
=10	=10	=10	=10	=10	=10	=10	=10	=10	=10
2C/	-a	2c\	-a	2G/	-a	1r	.	2e/	-a
[2F\	us-	[2c\	us-	[2A/	us-	.	.	[2f/	us-
=11	=11	=11	=11	=11	=11	=11	=11	=11	=11
2F\]	.	2c\]	.	2A/]	.	1r	.	2f/]	.
[2C/	-que	[2c\	-que	2G/	.	.	.	[2e/	-que
=12	=12	=12	=12	=12	=12	=12	=12	=12	=12
!!linebreak:original
2C/]	.	2c\]	.	2A/	-que	1r	.	2e/]	.
2D\	ad	2F/	ad	2A/	ad	.	.	2f/	ad
=13	=13	=13	=13	=13	=13	=13	=13	=13	=13
[1BB-	mor-	1F	mor-	2A/	mor-	1r	.	[1d	mor-
.	.	.	.	4G/	.	.	.	.	.
.	.	.	.	4F/	.	.	.	.	.
=14	=14	=14	=14	=14	=14	=14	=14	=14	=14
1BB-]	.	1D	.	1G	.	1r	.	1d]	.
=15	=15	=15	=15	=15	=15	=15	=15	=15	=15
[1AA	-tem:	[1E	-tem:	[1A	-tem:	1r	.	[1c#	-tem:
=16	=16	=16	=16	=16	=16	=16	=16	=16	=16
1AA]	.	1E]	.	1A]	.	1r	.	1c#]	.
=17	=17	=17	=17	=17	=17	=17	=17	=17	=17
2r	.	2r	.	2r	.	1r	.	2r	.
[2D\	su-	[2F#/	su-	[2A/	su-	.	.	[2d/	su-
=18	=18	=18	=18	=18	=18	=18	=18	=18	=18
2D\]	.	2F#/]	.	2A/]	.	1r	.	2d/]	.
2D\	-sti-	2A/	-sti-	2d\	-sti-	.	.	2f#/	-sti-
=19	=19	=19	=19	=19	=19	=19	=19	=19	=19
2G\	-ne-	2Bn\	-ne-	2d\	-ne-	1r	.	2g/	-ne-
2C/	-te	2c\	-te	2e\	-te	.	.	2g/	-te
=20	=20	=20	=20	=20	=20	=20	=20	=20	=20
1F	hic,	1c	hic,	1f	hic,	1r	.	1a	hic,
=21	=21	=21	=21	=21	=21	=21	=21	=21	=21
2BB-/	et	2d\	et	2f\	et	1r	.	2b-\	et
4BB-/	vi-	4d\	vi-	4f\	vi-	.	.	4b-\	vi-
4BB-/	-gi-	4d\	-gi-	4f\	-gi-	.	.	4b-\	-gi-
=22	=22	=22	=22	=22	=22	=22	=22	=22	=22
2F\	-la-	2c\	-la-	2f\	-la-	1r	.	2a/	-la-
2D\	-te	2d\	-te	2f\	-te	.	.	2a/	-te
=23	=23	=23	=23	=23	=23	=23	=23	=23	=23
!!pagebreak:original
1G	me-	1B-	me-	1d	me-	1r	.	1g	me-
=24	=24	=24	=24	=24	=24	=24	=24	=24	=24
2D\	-cum:	2A/	-cum:	2d\	-cum:	1r	.	2f#/	-cum:
2D\	nunc	2A/	nunc	2d\	nunc	.	.	2f#/	nunc
=25	=25	=25	=25	=25	=25	=25	=25	=25	=25
2G\	vi-	2B-\	vi-	2d\	vi-	1r	.	2g/	vi-
[2F\	-de-	[2c\	-de-	[2f\	-de-	.	.	[2a/	-de-
=26	=26	=26	=26	=26	=26	=26	=26	=26	=26
4F\]	.	4c\]	.	4f\]	.	1r	.	4a/]	.
4C/	-bi-	4c\	-bi-	4e\	-bi-	.	.	4g/	-bi-
2C/	-tis	2c\	-tis	2e\	-tis	.	.	2g/	-tis
=27	=27	=27	=27	=27	=27	=27	=27	=27	=27
1D	tur-	1F	tur-	2A/	tur-	1r	.	1f	tur-
.	.	.	.	2Bn\	.	.	.	.	.
=28	=28	=28	=28	=28	=28	=28	=28	=28	=28
2C/	-bam,	2G/	-bam,	2c\	-bam,	1r	.	2e/	-bam,
2C/	quae	2G/	quae	2c\	quae	.	.	2e/	quae
=29	=29	=29	=29	=29	=29	=29	=29	=29	=29
2C/	cir-	2G/	cir-	2c\	cir-	1r	.	2e/	cir-
[2GG/	-cum-	[2G/	-cum-	[2Bn\	-cum-	.	.	[2d/	-cum-
=30	=30	=30	=30	=30	=30	=30	=30	=30	=30
4GG/]	.	4G/]	.	4B\]	.	1r	.	4d/]	.
4GG/	-da-	4G/	-da-	4Bni\	-da-	.	.	4d/	-da-
2GG/	-bit	2G/	-bit	2B\	-bit	.	.	2d/	-bit
=31	=31	=31	=31	=31	=31	=31	=31	=31	=31
[1C	me:	[1G	me:	[1c	me:	1r	.	[1e	me:
=32	=32	=32	=32	=32	=32	=32	=32	=32	=32
1C]	.	1G]	.	1c]	.	1r	.	1e]	.
!!linebreak:original
=33||	=33||	=33||	=33||	=33||	=33||	=33||	=33||	=33||	=33||
!!linebreak:original
1r	.	1r	.	2B-\	Vos	1r	.	2r	.
.	.	.	.	4B-\	fu-	.	.	2f/	Vos
.	.	.	.	4c\	.	.	.	.	.
=34	=34	=34	=34	=34	=34	=34	=34	=34	=34
1r	.	2r	.	4d\	-gam	1r	.	4f/	fu-
.	.	.	.	4e\	.	.	.	4g/	-gam
.	.	2F/	Vos	[2f\	ca-	.	.	4a/	ca-
.	.	.	.	.	.	.	.	4b-\	-pi-
=35	=35	=35	=35	=35	=35	=35	=35	=35	=35
1r	.	4F/	fu-	4f\]	.	1r	.	2.cc\	-e-
.	.	4G/	-gam	8e\L	-pi-	.	.	.	.
.	.	.	.	8d\J	.	.	.	.	.
.	.	4A/	ca-	4c\	-e-	.	.	.	.
.	.	4B-\	-pi-	4d\	.	.	.	8b-/L	.
.	.	.	.	.	.	.	.	8a/J	.
=36	=36	=36	=36	=36	=36	=36	=36	=36	=36
1r	.	1c	-e-	4e\	.	1r	.	4g/	.
.	.	.	.	2f\	.	.	.	4f/	.
.	.	.	.	.	.	.	.	2g/	.
.	.	.	.	4e\	.	.	.	.	.
=37	=37	=37	=37	=37	=37	=37	=37	=37	=37
2r	.	1F	-tis,	1f	-tis,	1r	.	2a/	-tis,
2BB-/	et	.	.	.	.	.	.	2d/	et
=38	=38	=38	=38	=38	=38	=38	=38	=38	=38
2BB-/	e-	1F	et	1B-	et	1r	.	2d/	e-
2C/	-go	.	.	.	.	.	.	2e-i/	-go
=39	=39	=39	=39	=39	=39	=39	=39	=39	=39
1D	va-	2.F/	e-	2.A/	e-	1r	.	1f	va-
.	.	4G/	-go	4B-\	-go	.	.	.	.
=40	=40	=40	=40	=40	=40	=40	=40	=40	=40
2C/	-dam	1A	va-	2c\	va-	1r	.	2e-i/	-dam
[2F\	im-	.	.	2c\	-dam	.	.	2c/	et
=41	=41	=41	=41	=41	=41	=41	=41	=41	=41
2F\]	.	1B-	-dam	2r	.	1r	.	2d/	e-
2E-i\	-mo-	.	.	2c\	im-	.	.	2e-i/	-go
=42	=42	=42	=42	=42	=42	=42	=42	=42	=42
1D	-la-	1r	.	2B-\	-mo-	1r	.	1f	va-
.	.	.	.	[2A/	-la-	.	.	.	.
=43	=43	=43	=43	=43	=43	=43	=43	=43	=43
1C	-ri	1c	im-	2A/]	.	1r	.	1e-i	-dam
.	.	.	.	2G/	-ri	.	.	.	.
=44	=44	=44	=44	=44	=44	=44	=44	=44	=44
!!pagebreak:original
1D	im-	2B-\	-mo-	1F	pro	1r	.	2r	.
.	.	[2A/	-la-	.	.	.	.	[2f/	im-
=45	=45	=45	=45	=45	=45	=45	=45	=45	=45
1C	-mo-	2A/]	.	1G	vo-	1r	.	2f/]	.
.	.	[2G/	-ri	.	.	.	.	2e-i/	-mo-
=46	=46	=46	=46	=46	=46	=46	=46	=46	=46
1BB-	-la-	2G/]	.	2B-\	-bis	1r	.	1d	-la-
.	.	2F/	pro	[2f\	im-	.	.	.	.
=47	=47	=47	=47	=47	=47	=47	=47	=47	=47
1AA	-ri	1A	vo-	2f\]	.	1r	.	1c	-ri
.	.	.	.	2e\	-mo-	.	.	.	.
=48	=48	=48	=48	=48	=48	=48	=48	=48	=48
[1D	pro	1A	-bis	1d	-la-	1r	.	1f	pro
=49	=49	=49	=49	=49	=49	=49	=49	=49	=49
1D]	.	1F	pro	2A/	-ri	1r	.	1d	vo-
.	.	.	.	2Bn\	pro	.	.	.	.
=50	=50	=50	=50	=50	=50	=50	=50	=50	=50
1C	vo-	1G	vo-	1c	vo-	1r	.	1e	.
=51	=51	=51	=51	=51	=51	=51	=51	=51	=51
[1FF	-bis.	[1A	-bis.	[1c	-bis.	1r	.	[1f	-bis.
=52	=52	=52	=52	=52	=52	=52	=52	=52	=52
1FF]	.	1A]	.	1c]	.	1r	.	1f]	.
=53||	=53||	=53||	=53||	=53||	=53||	=53||	=53||	=53||	=53||
!!pagebreak:original
1r	.	1r	.	1r	.	1r	.	[1cc	Ec-
=54	=54	=54	=54	=54	=54	=54	=54	=54	=54
1r	.	1r	.	1r	.	1r	.	1cc]	.
=55	=55	=55	=55	=55	=55	=55	=55	=55	=55
1r	.	1r	.	1r	.	[1cc	Ec-	[1a	-ce
=56	=56	=56	=56	=56	=56	=56	=56	=56	=56
1r	.	1r	.	[1f	Ec-	1cc]	.	1a]	.
=57	=57	=57	=57	=57	=57	=57	=57	=57	=57
1r	.	1r	.	1f]	.	[1b-	-ce	1r	.
=58	=58	=58	=58	=58	=58	=58	=58	=58	=58
1r	.	1r	.	1d	-ce	1b-]	.	1r	.
=59	=59	=59	=59	=59	=59	=59	=59	=59	=59
1r	.	1r	.	[1d	ap-	[1f	ap-	[1a	ap-
=60	=60	=60	=60	=60	=60	=60	=60	=60	=60
1r	.	1r	.	2d\]	.	2f/]	.	2a/]	.
.	.	.	.	2A/	-pro-	2e/	-pro-	2cc\	-pro-
=61	=61	=61	=61	=61	=61	=61	=61	=61	=61
1r	.	1r	.	2B-\	-pin-	2d/	-pin-	2b-\	-pin-
.	.	.	.	2F/	-quat	2f/	-quat	2a/	-quat
=62	=62	=62	=62	=62	=62	=62	=62	=62	=62
1r	.	1r	.	1c	ho-	1e	ho-	1g	ho-
=63	=63	=63	=63	=63	=63	=63	=63	=63	=63
1r	.	1r	.	1c	-ra,	1e	-ra,	1g	-ra,
=64	=64	=64	=64	=64	=64	=64	=64	=64	=64
1r	.	1r	.	1r	.	1r	.	2r	.
.	.	.	.	.	.	.	.	2g/	et
=65	=65	=65	=65	=65	=65	=65	=65	=65	=65
1r	.	1r	.	1G	et	1d	et	[1b-	Fi-
=66	=66	=66	=66	=66	=66	=66	=66	=66	=66
1r	.	1r	.	[1d	Fi-	[1f	Fi-	2b-\]	.
.	.	.	.	.	.	.	.	2a/	-li-
=67	=67	=67	=67	=67	=67	=67	=67	=67	=67
1r	.	1r	.	2d\]	.	2f/]	.	1a	-us
.	.	.	.	2d\	-li-	2f/	-li-	.	.
=68	=68	=68	=68	=68	=68	=68	=68	=68	=68
!!linebreak:original
1r	.	1r	.	2c#\	-us	2e/	-us	2.a/	ho-
.	.	.	.	[2d\	ho-	[2f/	ho-	.	.
.	.	.	.	.	.	.	.	4a/	-mi-
=69	=69	=69	=69	=69	=69	=69	=69	=69	=69
1r	.	1r	.	2d\]	.	2f/]	.	2a/	-nis
.	.	.	.	2A/	-mi-	2e/	-mi-	[2cc\	tra-
=70	=70	=70	=70	=70	=70	=70	=70	=70	=70
1r	.	1r	.	2c\	-nis	2e/	-nis	2cc\]	.
.	.	.	.	2d\	tra-	2f/	tra-	[2a/	-de-
=71	=71	=71	=71	=71	=71	=71	=71	=71	=71
1r	.	1r	.	1B-	-de-	1d	-de-	4a/]	.
.	.	.	.	.	.	.	.	8g/L	.
.	.	.	.	.	.	.	.	8f/J	.
.	.	.	.	.	.	.	.	2g/	.
=72	=72	=72	=72	=72	=72	=72	=72	=72	=72
1r	.	1r	.	2A/	-tur	2c/	-tur	[1a	-tur
.	.	.	.	2r	.	2cc\	in	.	.
=73	=73	=73	=73	=73	=73	=73	=73	=73	=73
1r	.	1r	.	1f	in	1cc	ma-	2a/]	.
.	.	.	.	.	.	.	.	2r	.
=74	=74	=74	=74	=74	=74	=74	=74	=74	=74
1r	.	1r	.	1f	ma-	[1a	-nus	2r	.
.	.	.	.	.	.	.	.	2f/	in
=75	=75	=75	=75	=75	=75	=75	=75	=75	=75
1r	.	1r	.	1d	-nus	1a]	.	1f	ma-
=76	=76	=76	=76	=76	=76	=76	=76	=76	=76
1r	.	1r	.	2B-\	pec-	1b-	pec-	2d/	-nus
.	.	.	.	2G/	-ca-	.	.	2g/	pec-
=77	=77	=77	=77	=77	=77	=77	=77	=77	=77
1r	.	1r	.	[1d	-to-	2a/	-ca-	2f/	-ca-
.	.	.	.	.	.	[2b-\	-to-	[2g/	-to-
=78	=78	=78	=78	=78	=78	=78	=78	=78	=78
!!pagebreak:original
1r	.	1r	.	1d]	.	4b-\]	.	4g/]	.
.	.	.	.	.	.	4a/	.	4f/	.
.	.	.	.	.	.	4a/	.	[2f/	.
.	.	.	.	.	.	8g/L	.	.	.
.	.	.	.	.	.	8f/J	.	.	.
=79	=79	=79	=79	=79	=79	=79	=79	=79	=79
1r	.	1r	.	[1c	.	[1g	.	2f/]	.
.	.	.	.	.	.	.	.	4e/	.
.	.	.	.	.	.	.	.	4d/	.
=80	=80	=80	=80	=80	=80	=80	=80	=80	=80
1r	.	1r	.	1c]	.	1g]	.	1e	.
=81	=81	=81	=81	=81	=81	=81	=81	=81	=81
1r	.	1r	.	[1F	-rum.	[1a	-rum.	[1f	-rum.
=82	=82	=82	=82	=82	=82	=82	=82	=82	=82
1r	.	1r	.	1F]	.	1a]	.	1f]	.
=83||	=83||	=83||	=83||	=83||	=83||	=83||	=83||	=83||	=83||
1r	.	1r	.	2B-\	Vos	1r	.	2r	.
.	.	.	.	4B-\	fu-	.	.	2f/	Vos
.	.	.	.	4c\	.	.	.	.	.
=84	=84	=84	=84	=84	=84	=84	=84	=84	=84
1r	.	2r	.	4d\	-gam	1r	.	4f/	fu-
.	.	.	.	4e\	.	.	.	4g/	-gam
.	.	2F/	Vos	[2f\	ca-	.	.	4a/	ca-
.	.	.	.	.	.	.	.	4b-\	-pi-
=85	=85	=85	=85	=85	=85	=85	=85	=85	=85
1r	.	4F/	fu-	4f\]	.	1r	.	2.cc\	-e-
.	.	4G/	-gam	8e\L	-pi-	.	.	.	.
.	.	.	.	8d\J	.	.	.	.	.
.	.	4A/	ca-	4c\	-e-	.	.	.	.
.	.	4B-\	-pi-	4d\	.	.	.	8b-/L	.
.	.	.	.	.	.	.	.	8a/J	.
=86	=86	=86	=86	=86	=86	=86	=86	=86	=86
1r	.	1c	-e-	4e\	.	1r	.	4g/	.
.	.	.	.	2f\	.	.	.	4f/	.
.	.	.	.	.	.	.	.	2g/	.
.	.	.	.	4e\	.	.	.	.	.
=87	=87	=87	=87	=87	=87	=87	=87	=87	=87
2r	.	1F	-tis,	1f	-tis,	1r	.	2a/	-tis,
2BB-/	et	.	.	.	.	.	.	2d/	et
=88	=88	=88	=88	=88	=88	=88	=88	=88	=88
!!pagebreak:original
2BB-/	e-	1F	et	1B-	et	1r	.	2d/	e-
2C/	-go	.	.	.	.	.	.	2e-i/	-go
=89	=89	=89	=89	=89	=89	=89	=89	=89	=89
1D	va-	2.F/	e-	2.A/	e-	1r	.	1f	va-
.	.	4G/	-go	4B-\	-go	.	.	.	.
=90	=90	=90	=90	=90	=90	=90	=90	=90	=90
2C/	-dam	1A	va-	2c\	va-	1r	.	2e-i/	-dam
[2F\	im-	.	.	2c\	-dam	.	.	2c/	et
=91	=91	=91	=91	=91	=91	=91	=91	=91	=91
2F\]	.	1B-	-dam	2r	.	1r	.	2d/	e-
2E-i\	-mo-	.	.	2c\	im-	.	.	2e-i/	-go
=92	=92	=92	=92	=92	=92	=92	=92	=92	=92
1D	-la-	1r	.	2B-\	-mo-	1r	.	1f	va-
.	.	.	.	[2A/	-la-	.	.	.	.
=93	=93	=93	=93	=93	=93	=93	=93	=93	=93
1C	-ri	1c	im-	2A/]	.	1r	.	1e-i	-dam
.	.	.	.	2G/	-ri	.	.	.	.
=94	=94	=94	=94	=94	=94	=94	=94	=94	=94
1D	im-	2B-\	-mo-	1F	pro	1r	.	2r	.
.	.	[2A/	-la-	.	.	.	.	[2f/	im-
=95	=95	=95	=95	=95	=95	=95	=95	=95	=95
1C	-mo-	2A/]	.	1G	vo-	1r	.	2f/]	.
.	.	[2G/	-ri	.	.	.	.	2e-i/	-mo-
=96	=96	=96	=96	=96	=96	=96	=96	=96	=96
!!linebreak:original
1BB-	-la-	2G/]	.	2B-\	-bis	1r	.	1d	-la-
.	.	2F/	pro	[2f\	im-	.	.	.	.
=97	=97	=97	=97	=97	=97	=97	=97	=97	=97
1AA	-ri	1A	vo-	2f\]	.	1r	.	1c	-ri
.	.	.	.	2e\	-mo-	.	.	.	.
=98	=98	=98	=98	=98	=98	=98	=98	=98	=98
[1D	pro	1A	-bis	1d	-la-	1r	.	1f	pro
=99	=99	=99	=99	=99	=99	=99	=99	=99	=99
1D]	.	1F	pro	2A/	-ri	1r	.	1d	vo-
.	.	.	.	2Bn\	pro	.	.	.	.
=100	=100	=100	=100	=100	=100	=100	=100	=100	=100
1C	vo-	1G	vo-	1c	vo-	1r	.	1e	.
=101	=101	=101	=101	=101	=101	=101	=101	=101	=101
[1FF	-bis.	[1A	-bis.	[1c	-bis.	1r	.	[1f	-bis.
=102	=102	=102	=102	=102	=102	=102	=102	=102	=102
1FF]	.	1A]	.	1c]	.	1r	.	1f]	.
==	==	==	==	==	==	==	==	==	==
*-	*-	*-	*-	*-	*-	*-	*-	*-	*-
!!!OTL: Tristis est anima mea 
!!!COM: Ingegneri, Marc' Antonio
!!!CDT: ca. 1535/36-1592-07-01
!!!TXO: Latin
!!!ODT: 
!!!ARL: Klasztor OO. Paulinów na Jasnej Górze
!!!voices:	5
!!title: @{OTL}, @{GTL}, ed. @{ENC}
!!!pag:
!!!GTL: Responsoria in Hebdomada majore
!!!EFL: 
!!!YEM: Creative Commons CC/BY/NC/SA 4.0
!!!ENC: Marcin Konik
!!!END: 2015-0m-dd
!!!EED: Marcin Konik
!!!EEV: 
!!!ONB: Encoded in vim by Marcin Konik
!!!CharacterEncoding: utf-8
!!!RDF**kern: l=long note in original notation
!!!RDF**kern: i=editorial accidental
!!muse2ps: z14jc180F
